maps/states/RI.svg

<?xml version="1.0" standalone="yes"?>
<svg xmlns="http://www.w3.org/2000/svg" version="1.2" id="root" viewBox="838.5140136694833 194.26770800576276 11.542855086740474 14.232900865712168"><g id="counties"><path id="county-44007" class="county feature" d="M844.1977161644843,194.44297959192363L846.0528672420523,198.01528345862096L845.7087094855767,198.55626962552276L845.1273882801272,198.49395107295675L844.3733807133987,199.31223073160288L839.987367642271,200.61497540211053L838.5140136694833,195.48651675571512L842.4887640215095,194.26770800576276Z" style="fill: inherit; stroke: inherit; stroke-width: inherit;" vector-effect="non-scaling-stroke"><title>Providence County</title></path><path id="county-44001" class="county feature" d="M847.5712189299436,198.8367852992651L847.4603666204576,200.2344818948825L845.7087094855767,198.55626962552276L846.0528672420523,198.01528345862096Z" style="fill: inherit; stroke: inherit; stroke-width: inherit;" vector-effect="non-scaling-stroke"><title>Bristol County</title></path><path id="county-44003" class="county feature" d="M845.1273882801272,198.49395107295675L845.1544115689778,200.69272248277184L844.6447874966957,201.76193699347436L840.5973153773532,202.93771440538512L840.4173540534615,202.1479431947181L839.987367642271,200.61497540211053L844.3733807133987,199.31223073160288Z" style="fill: inherit; stroke: inherit; stroke-width: inherit;" vector-effect="non-scaling-stroke"><title>Kent County</title></path><path id="county-44005" class="county feature" d="M848.0682938457052,200.16028604630446L848.3867098076271,202.99627615285897L847.244789375004,202.77287028035187ZM850.0568687562238,202.37629490872894L849.251000542491,203.3746486311852L848.1733141921267,199.41670135350114L849.0903374107634,199.46022616523874Z" style="fill: inherit; stroke: inherit; stroke-width: inherit;" vector-effect="non-scaling-stroke"><title>Newport County</title></path><path id="county-44009" class="county feature" d="M841.0771916194573,208.0108020914696L841.3414558411207,206.2507397108651L840.5973153773532,202.93771440538512L844.6447874966957,201.76193699347436L845.1544115689778,200.69272248277184L846.1545856829109,203.94874903463176L845.7645708788916,205.96750156724295L841.0495762567873,208.50060887147492Z" style="fill: inherit; stroke: inherit; stroke-width: inherit;" vector-effect="non-scaling-stroke"><title>Washington County</title></path></g><path id="counties-mesh" class="counties mesh" d="M846.0528672420523,198.01528345862096L845.7087094855767,198.55626962552276L845.1273882801272,198.49395107295675L844.3733807133987,199.31223073160288L839.987367642271,200.61497540211053M845.1273882801272,198.49395107295675L845.1544115689778,200.69272248277184L844.6447874966957,201.76193699347436L840.5973153773532,202.93771440538512L840.4173540534615,202.1479431947181L839.987367642271,200.61497540211053L838.5140136694833,195.48651675571512L842.4887640215095,194.26770800576276L844.1977161644843,194.44297959192363L846.0528672420523,198.01528345862096L847.5712189299436,198.8367852992651L847.4603666204576,200.2344818948825L845.7087094855767,198.55626962552276M845.1544115689778,200.69272248277184L846.1545856829109,203.94874903463176L845.7645708788916,205.96750156724295L841.0495762567873,208.50060887147492L841.0771916194573,208.0108020914696L841.3414558411207,206.2507397108651L840.5973153773532,202.93771440538512M848.0682938457052,200.16028604630446L848.3867098076271,202.99627615285897L847.244789375004,202.77287028035187L848.0682938457052,200.16028604630446M848.1733141921267,199.41670135350114L849.0903374107634,199.46022616523874L850.0568687562238,202.37629490872894L849.251000542491,203.3746486311852L848.1733141921267,199.41670135350114" style="fill: inherit; stroke: inherit; stroke-width: inherit;" vector-effect="non-scaling-stroke"></path></svg>

<svg xmlns="http://www.w3.org/2000/svg" version="1.2" id="root" viewBox="838.5140136694833 194.26770800576276 11.542855086740474 14.232900865712168"><g id="counties"><path id="county-44007" class="county feature" d="M844.198 194.443l1.855 3.572-.344.541-.582-.062-.754.818-4.386 1.303-1.473-5.128 3.975-1.22z" vector-effect="non-scaling-stroke" fill="inherit" stroke="inherit" stroke-width="inherit"><title>Providence County</title></path><path id="county-44001" class="county feature" d="M847.571 198.837l-.11 1.397-1.752-1.678.344-.54z" vector-effect="non-scaling-stroke" fill="inherit" stroke="inherit" stroke-width="inherit"><title>Bristol County</title></path><path id="county-44003" class="county feature" d="M845.127 198.494l.027 2.199-.51 1.069-4.047 1.176-.18-.79-.43-1.533 4.386-1.303z" vector-effect="non-scaling-stroke" fill="inherit" stroke="inherit" stroke-width="inherit"><title>Kent County</title></path><path id="county-44005" class="county feature" d="M848.068 200.16l.319 2.836-1.142-.223zm1.989 2.216l-.806.999-1.078-3.958.917.043z" vector-effect="non-scaling-stroke" fill="inherit" stroke="inherit" stroke-width="inherit"><title>Newport County</title></path><path id="county-44009" class="county feature" d="M841.077 208.01l.264-1.76-.744-3.312 4.048-1.176.51-1.07 1 3.257-.39 2.019-4.715 2.533z" vector-effect="non-scaling-stroke" fill="inherit" stroke="inherit" stroke-width="inherit"><title>Washington County</title></path></g><path id="counties-mesh" class="counties mesh" d="M846.053 198.015l-.344.541-.582-.062-.754.818-4.386 1.303m5.14-2.121l.027 2.199-.51 1.069-4.047 1.176-.18-.79-.43-1.533-1.473-5.128 3.975-1.22 1.709.176 1.855 3.572 1.518.822-.11 1.397-1.752-1.678m-.555 2.137l1 3.256-.39 2.019-4.714 2.533.027-.49.264-1.76-.744-3.313m7.471-2.778l.319 2.836-1.142-.223.823-2.613m.105-.743l.917.043.967 2.916-.806.999-1.078-3.958" vector-effect="non-scaling-stroke" fill="inherit" stroke="inherit" stroke-width="inherit"/></svg>
